openframe-frontend-core/src/components/icons-v2/brand-logos/linkedin-logo.svg

<svg width="24" height="24" viewBox="0 0 24 24" fill="none" xmlns="http://www.w3.org/2000/svg">
<path d="M2 3.4669C2 2.67929 2.66203 2.03998 3.47812 2.03998H20.5219C21.3383 2.03998 22 2.67929 22 3.4669V20.5333C22 21.3211 21.3383 21.96 20.5219 21.96H3.47812C2.66211 21.96 2 21.3212 2 20.5335V3.46667V3.4669Z" fill="#006699"/>
<path d="M8.07791 18.7104V9.74236H5.0851V18.7104H8.07822H8.07791ZM6.58213 8.51813C7.62557 8.51813 8.27518 7.82949 8.27518 6.96889C8.25564 6.08867 7.62557 5.41925 6.60197 5.41925C5.57768 5.41925 4.90869 6.08867 4.90869 6.96881C4.90869 7.82941 5.55807 8.51806 6.56252 8.51806H6.58189L6.58213 8.51813ZM9.73447 18.7104H12.727V13.7028C12.727 13.4351 12.7466 13.1667 12.8256 12.9755C13.0419 12.4398 13.5343 11.8852 14.3613 11.8852C15.4439 11.8852 15.8773 12.7076 15.8773 13.9133V18.7104H18.8698V13.5684C18.8698 10.8139 17.3935 9.53211 15.4245 9.53211C13.8103 9.53211 13.1013 10.4308 12.7074 11.0428H12.7273V9.74267H9.73463C9.77369 10.584 9.73439 18.7107 9.73439 18.7107L9.73447 18.7104Z" fill="white"/>
</svg>

<svg xmlns="http://www.w3.org/2000/svg" width="24" height="24" fill="none" viewBox="0 0 24 24">
  <path fill="#069" d="M2 3.467c0-.788.662-1.427 1.478-1.427h17.044c.816 0 1.478.64 1.478 1.427v17.066c0 .788-.662 1.427-1.478 1.427H3.478C2.662 21.96 2 21.321 2 20.533V3.468Z"/>
  <path fill="#fff" d="M8.078 18.71V9.742H5.085v8.968h2.993ZM6.582 8.518c1.044 0 1.693-.689 1.693-1.55-.02-.88-.65-1.549-1.673-1.549-1.024 0-1.693.67-1.693 1.55 0 .86.65 1.55 1.654 1.55h.019ZM9.734 18.71h2.993v-5.007c0-.268.02-.536.099-.727.216-.536.708-1.09 1.535-1.09 1.083 0 1.516.822 1.516 2.027v4.797h2.993v-5.142c0-2.754-1.477-4.036-3.446-4.036-1.614 0-2.323.899-2.717 1.51h.02v-1.3H9.735c.039.842 0 8.969 0 8.969Z"/>
</svg>
